!!!!SEGMENT: pl-sa--549-a-ix-29--017_anonim--krakowiak.krn
!!!cenid: 18xx:580
!!!COM: Anonim
!!!COM-rismID: pe30004985
!!!CDT:
!!!CNT:
!!!OTL: Krakowiak
!!!PDT:
!!!AGN: Secular
!!!SMS-siglum: PL-SA
!!!SMS-shelfmark: 549/A IX 29
!!!SMS-shelfwork: 016 W
!!!SMS-variant:
!!!SMS-altvar:
!!!NIFC-rismSourceID: 1001068429
!!!NIFC-rismChildID: 1001068429
!!!NIFC-islandoraID: none
!!!URL-pdf-islandora:
!!!URL-scan: https://bc.bdsandomierz.pl/dlibra/publication/1441/edition/1409/content @EN{Scan in the Sandomierz Diocese Digital Library} @PL{Skany w portalu Cyfrowa Biblioteka Diecezjalna w Sandomierzu}
!!!ONB-nifc: Str. 12, s. 5-6
!!!AIN: 1 piano
!!!key: G
**kern	**kern
*part1	*part1
*staff2	*staff1
*ICklav	*ICklav
*IGsolo	*IGsolo
*Ipiano	*Ipiano
*I"	*I"
*>[A,B,B]	*>[A,B,B]
*>A	*>A
*clefF4	*clefG2
*k[f#]	*k[f#]
*G:	*G:
*M2/4	*M2/4
=1	=1
!	!LO:TX:b:t=Krakowiak
4D 4GG/	8g/L
.	8a 8f#/
4D 4GG/	8b 8g/
.	8ccJ 8a/
=2	=2
*rep	*
4D 4GG/	8ddL 8b\
.	8cc#X 8a#X\
4D 4GG/	8ee 8ccn\
.	8ddJ 8b\
*Xrep	*
=3	=3
*rep	*
4D 4GG/	8ddL 8b\
.	8cc#X 8a#X\
4D 4GG/	8ee 8ccn\
.	8ddJ 8b\
*Xrep	*
!!LO:LB:g=original
=4	=4
*rep	*
4D 4GG/	8ddL 8b\
.	8cc#X 8a#X\
4D 4GG/	8ee 8ccn\
.	8ddJ 8b\
*Xrep	*
=5	=5
*rep	*
4D 4GG/	8ddL 8b\
.	8cc#X 8a#X\
4D 4GG/	8ee 8ccn\
.	8ddJ 8b\
*Xrep	*
=6!|:	=6!|:
*>B	*>B
8A\L	16cc#X\LL
.	16dd\
8d\	16ee\
.	16dd\JJ
8D\	8ccn\L
8d\J	8a\J
=7	=7
!LO:N:vis=8.	!
8BL 8G\	4g/
8d\J	.
!LO:N:vis=8.	!
*rep	*
8BL 8G\	4b/
8d\J	.
*Xrep	*
=8	=8
!	!LO:N:vis=8
8AL 8F#\	16dd\LL
!	!LO:N:vis=8
.	16cc#X\
!	!LO:N:vis=8
8d\J	16ee\
!	!LO:N:vis=8
.	16dd\JJ
8ALyy 8F#\yy	8ccn\L
8d\Jyy	8a\J
=9	=9
8BL 8G\	4g/
8d\J	.
*rep	*
8BL 8G\	4b/
8d\J	.
*Xrep	*
=10	=10
!	!LO:N:vis=8
8AL 8F#\	16dd\LL
!	!LO:N:vis=8
.	16cc#X\
!	!LO:N:vis=8
8d\J	16ee\
!	!LO:N:vis=8
.	16dd\JJ
=	=
8D\L	8.ccn/L
8d\J	.
.	16a/Jk
=11	=11
.	8qa/
8BL 8G\	16g/LL
.	16f#/
8d\J	16g/
.	16a/JJ
*rep	*
.	8qcc/
8BL 8G\	16b\LL
.	16a\
8d\J	16b\
.	16cc\JJ
*Xrep	*
=12	=12
8cL 8A 8F#\	16dd\LL
.	16cc#X\
8d\J	16ee\
.	16dd\JJ
8D\L	8ccn/L
8d\J	8a/J
=13	=13
8BL 8G\	4g/
8d\J	.
*rep	*
8BL 8G\	4b/
8d\J	.
*Xrep	*
==	==
*-	*-
!!!system-decoration: [(s1,s2)]
!!!ENC: Andrzej Borzym
!!!END: 2020-06-18
!!!ENC: Marta Lawrence
!!!END: 2022-01-04
!!!YEC: Copyright 2022 Narodowy Instytut Fryderyka Chopina (https://polishscores.org)
!!!YEM: License CC-BY-4.0 (https://creativecommons.org/licenses/by/4.0)
